X:226
T: DU BACH MIT SILBERNEN WELLEN
N: B0271
O: Europa, Mitteleuropa, Deutschland
R: Stimmungs - Lied, Trauer, Klage
M: 6/8
L: 1/16
K: A
E2 | A2A2B2=c3Bc2 | A4=c2B4
c2 | A3B=c2d2c2B2 | A6G4
B2 | =c2c2c2d2d2d2 | e6d4
d2 | =c3BA2B4E2 | A6z4

@@@ Tune index: 2029
